X:1
T:Title
%%score { ( 1 3 ) | ( 2 4 ) }
L:1/8
Q:1/4=84
M:6/8
K:Ab
V:1 treble nm="Grand Piano"
V:3 treble 
V:2 bass 
V:4 bass 
V:1
 [CE][CA][Ec] [Ec][Fd][Ec] | c2 B B3 | EGB BcB | [DB]2 [CA] [CA]2 [CE] | [Ec]2 [Ec] [_Ge][Gd][Gc] | %5
w: James~McGranahan * * * * *|||||
 [FB]2 [DF] [Fd]2 [Fd] | cBA GAB | [CA]6 | .[Ec]6 | G3 z3 | .[Fd]6 | A3 G3[K:bass] | .e6 | %13
w: ||||||||
 [FB]2 [DF] [Fd]2 [Fd] | cBA GAB | A6 |] %16
w: |||
V:2
 [A,,A,][A,,A,][A,,A,] [A,,A,][A,,A,][A,,A,] | [E,G,E]2 [E,G,D] [E,G,D]3 | %2
 [E,G,D][E,G,D][E,G,D] [E,G,D][E,G,E][E,G,D] | [A,,E,]2 [A,,E,] [A,,E,]2 [A,,A,] | %4
 [A,,A,]2 [A,,A,] [A,,A,][B,,A,][C,A,] | [D,A,]2 [D,B,] [D,B,]2 [D,A,] | %6
 [E,A,E][E,G,D][E,A,C] [E,B,D][E,F,D][E,G,D] | [A,,A,]6 | [A,,A,]C,E, A,,[B,,E,][C,A,C] | %9
 [D,B,]2 D, [D,B,D]3 | [B,,B,]D,F, B,,[C,F,][D,F,D] | [E,C]2 [=D,B,] .[E,B,E]3 | %12
 [C,A,][C,A,][C,A,] [A,,A,][B,,A,][C,A,] | [D,B,]2 [D,B,] [D,B,]2 [D,A,] | %14
 [E,A,E][E,G,D][E,A,C] [E,B,D][E,F,D][E,G,D] | z CD C3 |] %16
V:3
 x6 | x6 | x6 | x6 | x6 | x6 | x6 | x6 | z A,A, A,[DB]A | z2 B, F3 | z B,B, B,[Ec]B | %11
 z2 F z[K:bass] .D,2 | E_GG G[Gd][Gc] | x6 | x6 | [A,C]EF E3 |] %16
V:4
 x6 | x6 | x6 | x6 | x6 | x6 | x6 | x6 | x6 | x6 | x6 | x6 | x6 | x6 | x6 | A,,6 |] %16

